docs/img/delete.svg

<svg width="24" height="24" viewBox="0 0 24 24" fill="none" xmlns="http://www.w3.org/2000/svg">
<path d="M5 9H19V21C19 21.5523 18.5523 22 18 22H6C5.44772 22 5 21.5523 5 21V9Z" fill="black"/>
<path d="M4 5C4 4.44772 4.44772 4 5 4H19C19.5523 4 20 4.44772 20 5V7H4V5Z" fill="black"/>
<path d="M9 3C9 2.44772 9.44772 2 10 2H14C14.5523 2 15 2.44772 15 3V4H9V3Z" fill="black"/>
</svg>

<svg width="24" height="24" fill="none" xmlns="http://www.w3.org/2000/svg"><path d="M5 9h14v12a1 1 0 01-1 1H6a1 1 0 01-1-1V9zM4 5a1 1 0 011-1h14a1 1 0 011 1v2H4V5zm5-2a1 1 0 011-1h4a1 1 0 011 1v1H9V3z" fill="#000"/></svg>
